X:1
T: Stone Head
R: reel
C: Rick Gagne
N: 1991 on whistle
N: no C or C# notes
M: 4/4
Q: 1/4=175
K: Em
Bd | "Em"e2ef eB~B2 | gfed eB~B2 | "D"f2fg fede | "Bm"fddf "D"a2gf |
"Em"e2ef eB~B2 | gfed eB~B2 | EGBE GBef | "C"gfed "Em"e2 :|
ga | "Em"bgfg eB~B2 | G/A/BeB G/A/BeB | "D"afef dAA2 | F/G/AdA "Bm"fdaf |
"Em"bgfg eB~B2 | G/A/BeB G/A/BeB | "D"afed "Bm"bafd | "C"gefd "Em"e2 :|
